lib/build/svg/brand/gmail.svg

<svg width="24" height="24" viewBox="0 0 24 24" fill="none" xmlns="http://www.w3.org/2000/svg">
<g clip-path="url(#clip0)">
<path d="M6.54547 20.0039V12.2766L4.14898 10.0841L2 8.86749V18.6402C2 19.3948 2.61133 20.0039 3.36367 20.0039H6.54547V20.0039Z" fill="#4285F4"/>
<path d="M17.4545 20.0039H20.6363C21.3909 20.0039 22 19.3925 22 18.6402V8.86755L19.5659 10.2611L17.4545 12.2765V20.0039V20.0039Z" fill="#34A853"/>
<path d="M6.54548 12.2766L6.21938 9.25726L6.54548 6.36749L12 10.4584L17.4545 6.36749L17.8194 9.10124L17.4545 12.2766L12 16.3675L6.54548 12.2766Z" fill="#EA4335"/>
<path d="M17.4545 6.36748V12.2765L22 8.86748V7.04927C22 5.36294 20.075 4.40162 18.7273 5.41294L17.4545 6.36748Z" fill="#FBBC04"/>
<path d="M2 8.86739L4.09055 10.4354L6.54547 12.2765V6.36739L5.27266 5.41286C3.92266 4.40145 2 5.36286 2 7.04911V8.86731V8.86739Z" fill="#C5221F"/>
</g>
<defs>
<clipPath id="clip0">
<rect width="20" height="15.0781" fill="white" transform="translate(2 5)"/>
</clipPath>
</defs>
</svg>

<svg width="24" height="24" viewBox="0 0 24 24" fill="none" xmlns="http://www.w3.org/2000/svg">
  <path d="M6.545 20.004v-7.727L4.15 10.084 2 8.867v9.773c0 .755.611 1.364 1.364 1.364h3.181z" fill="#4285F4"/>
  <path d="M17.454 20.004h3.182c.755 0 1.364-.612 1.364-1.364V8.868l-2.434 1.393-2.111 2.016v7.727z" fill="#34A853"/>
  <path d="M6.545 12.277l-.326-3.02.326-2.89L12 10.458l5.454-4.09.365 2.733-.364 3.176L12 16.367l-5.455-4.09z" fill="#EA4335"/>
  <path d="M17.454 6.367v5.91L22 8.867V7.05c0-1.686-1.925-2.647-3.273-1.636l-1.273.954z" fill="#FBBC04"/>
  <path d="M2 8.867l2.09 1.568 2.455 1.841V6.368l-1.272-.954C3.923 4.4 2 5.363 2 7.049v1.818z" fill="#C5221F"/>
</svg>
